X:1
T:the Fox Hunters' Jig
C:anon.
O:Ireland
B:Francis O'Neill: "The Dance Music of Ireland" (1907) no. 422
R:Slip jig, hop
Z:Transcribed by Frank Nordberg - http://www.musicaviva.com
N:Chords by John Chambers
F:http://www.musicaviva.com/abc/tunes/ireland/oneill-1001/0422/oneill-1001-0422-1.abc
M:9/8
L:1/8
K:D
|: "D"FGF F2D "G"G2E | "D"FAF F2D "A7"E2D | "D"~FGF F2D "G"G2B | "D"AFD D2F "A7"E2"D"D :|
|: "G"BcB BAG "D"FGA | "Em"B2E E2F G2B | "A"ABc "G"dcB "A"ABc | "D"d2D D2F "A7"E2"D"D :| 
|: "D"fgf f2d "G"g2e | "D"fgf f2d "A7"e2d | "D"~fgf f2d "G"g2b | "D"afd d2f "A7"e2"D"d :|
|: "G"gfe dcB "D"AGF | "Em"B2E E2F G2B | "A"ABc "G"dcB "A"ABc | "D"d2D D2F "A7"E2"D"D :| 
